X: 92
T: Cook in the Kitchen
R:Jig
C:Trad
M:6/8
L:1/8
K:G
E| "G"DGG GAG |"D" FDE "Dm"=F2 E |"G" DGG GFG | "D"Add "C"cAG  |
"G"DGG GAG |"D" FDE"d" =F2 d |"C" cAG "D"FGA |1"G"BGF G2:|2"G"BGF G2A||
|: "G"~B3 BAG |"D" ~A3 AGF |"G" ~G3 GFG |"D" Add "C"cAG |
"G"BcB BAG | "D"ABA A2d |"C" cAG "D"FGA|1"G"BGF G2A:|2"G"BGF G2B ||
|: "D"d2 e f2 g | a2 g fed |"C" cAG "D"FGA |"G" BGB "D"AFD |
"D"d2 e f2 g | a2 g fed | "C"cAG "D"FGA |1"G"BGF G2B:|2"G"BGF G2|]


